icons/gatsby/gatsby-plain-wordmark.svg

<svg xmlns="http://www.w3.org/2000/svg" viewBox="0 0 128 128"><path fill="#64328B" d="M17.4 47.3C8.2 47.3.7 54.8.7 64s7.5 16.7 16.7 16.7S34.1 73.2 34.1 64s-7.5-16.7-16.7-16.7zM4.1 64.1l13.3 13.3c-7.4 0-13.3-6-13.3-13.3zM20.3 77L4.4 61c1.4-5.9 6.6-10.3 13-10.3 4.3 0 8.2 2.1 10.6 5.3l-2 1.9c-1.9-2.7-5.1-4.5-8.7-4.5-4.6 0-8.5 2.9-10 7 2 1.8 13 12.8 13.7 13.6 3.3-1.2 5.8-4.1 6.7-7.6H22V64l8.6.1c0 6.3-4.4 11.6-10.3 12.9zM57.1 63.9v2.8h4.7c-.9 2.3-3.2 4-5.9 4-3.5 0-6.4-2.9-6.4-6.4s2.9-6.4 6.4-6.4c2 0 3.8.9 5 2.4l2.8-2c-1.8-2.3-4.6-3.8-7.7-3.8h-.2c-5.4 0-9.7 4.3-9.7 9.7s4.3 9.7 9.7 9.7h.2c5.4 0 9.7-4.3 9.7-9.7v-.4l-8.6.1zM75.9 63.4c-1-1.3-2.4-2.1-4.1-2.1-3 0-5.4 2.9-5.4 6.4 0 3.5 2.4 6.4 5.4 6.4 1.7 0 3.2-.9 4.2-2.3v1.6h3.3V61.6h-3.4v1.8zm-2.7 7.5c-1.9 0-3.4-1.5-3.4-3.4s1.5-3.4 3.4-3.4 3.4 1.5 3.4 3.4-1.5 3.4-3.4 3.4zM107.6 61.2c-1.6 0-3.1.8-4.1 2.1v-9.7h-3.4v19.7h3.3v-1.6c1 1.4 2.5 2.3 4.2 2.3 3 0 5.4-2.9 5.4-6.4 0-3.5-2.4-6.4-5.4-6.4zm-1.4 9.7c-1.9 0-3.4-1.5-3.4-3.4s1.5-3.4 3.4-3.4 3.4 1.5 3.4 3.4-1.5 3.4-3.4 3.4zM85.7 57.6h-3.2v4h-1.3v2.7h1.3v9h3.2v-9h2.4v-2.7h-2.4zM93.2 65.5c-.9 0-1.3-3.5 2.8-1.1l1.6-1.9s-3.9-2.8-7.2 0c-2.4 3.5 1.1 5.2 1.1 5.2l2.1.9s2.9 1.3 0 2.8c-2.4.1-3.2-1.6-3.2-1.6l-1.6 2s4.3 4.4 8.9 0c2.4-5.7-3.1-5.7-4.5-6.3zM123.8 61.6l-3.4 6.7-3.6-6.7H113l5.5 10.2-4.3 8h3.8l9.5-18.2z"/></svg>

<svg xmlns="http://www.w3.org/2000/svg" viewBox="0 0 128 128"><path fill="#64328B" d="M17.4,47.3c-9.2,0-16.7,7.5-16.7,16.7v0c0,9.2,7.5,16.7,16.7,16.7s16.7-7.5,16.7-16.7v0   C34.1,54.8,26.6,47.3,17.4,47.3z M4.1,64.1l13.3,13.3C10,77.4,4.1,71.4,4.1,64.1z M20.3,77l-15.9-16c1.4-5.9,6.6-10.3,13-10.3   c4.3,0,8.2,2.1,10.6,5.3l-2,1.9c-1.9-2.7-5.1-4.5-8.7-4.5c-4.6,0-8.5,2.9-10,7C9.3,62.2,20.3,73.2,21,74c3.3-1.2,5.8-4.1,6.7-7.6   H22V64l8.6,0.1C30.6,70.4,26.2,75.7,20.3,77z"/><path fill="#64328B" d="M57.1,63.9v2.8l4.7,0c-0.9,2.3-3.2,4-5.9,4c-3.5,0-6.4-2.9-6.4-6.4s2.9-6.4,6.4-6.4c2,0,3.8,0.9,5,2.4l2.8-2    c-1.8-2.3-4.6-3.8-7.7-3.8h-0.2c-5.4,0-9.7,4.3-9.7,9.7s4.3,9.7,9.7,9.7h0.2c5.4,0,9.7-4.3,9.7-9.7c0-0.2,0-0.3,0-0.4L57.1,63.9z"/><path fill="#64328B" d="M75.9,63.4c-1-1.3-2.4-2.1-4.1-2.1c-3,0-5.4,2.9-5.4,6.4c0,3.5,2.4,6.4,5.4,6.4c1.7,0,3.2-0.9,4.2-2.3v1.6    h3.3V61.6h-3.4V63.4z M73.2,70.9c-1.9,0-3.4-1.5-3.4-3.4c0-1.9,1.5-3.4,3.4-3.4c1.9,0,3.4,1.5,3.4,3.4    C76.6,69.4,75.1,70.9,73.2,70.9z"/><path fill="#64328B" d="M107.6,61.2c-1.6,0-3.1,0.8-4.1,2.1v-1.7v-8h-3.4v8v11.7h3.3v-1.6c1,1.4,2.5,2.3,4.2,2.3c3,0,5.4-2.9,5.4-6.4    C113,64.1,110.6,61.2,107.6,61.2z M106.2,70.9c-1.9,0-3.4-1.5-3.4-3.4c0-1.9,1.5-3.4,3.4-3.4c1.9,0,3.4,1.5,3.4,3.4    C109.6,69.4,108.1,70.9,106.2,70.9z"/><path fill="#64328B" d="M 85.7,57.6 82.5,57.6 82.5,61.6 81.2,61.6 81.2,64.3 82.5,64.3 82.5,73.3 85.7,73.3 85.7,64.3     88.1,64.3 88.1,61.6 85.7,61.6   z"/><path fill="#64328B" d="M93.2,65.5c-0.9,0-1.3-3.5,2.8-1.1l1.6-1.9c0,0-3.9-2.8-7.2,0c-2.4,3.5,1.1,5.2,1.1,5.2l2.1,0.9    c0,0,2.9,1.3,0,2.8c-2.4,0.1-3.2-1.6-3.2-1.6l-1.6,2c0,0,4.3,4.4,8.9,0C100.1,66.1,94.6,66.1,93.2,65.5z"/><path fill="#64328B" d="M 123.8,61.6 120.4,68.3 116.8,61.6 113,61.6 118.5,71.8 114.2,79.8 118,79.8 127.5,61.6   z"/></svg>
